X: 55
T: Quelque pauvre homme I
N: Derived from Bus3051-Quelque_pauvre_homme_I.krn
C: Antoine Busnoys
%%abc-version 2.0
%%abcx-abcm2ps-target-version 5.9.1 (29 Sep 2008)
%%abc-creator hum2abc beta
%%abcx-conversion-date 2019/02/16 20:26:07
%%abc-edited-by Jesse Rodin
%%abc-edited-by Chris Gage 04-17-2015
%%abcx-initial-encoding-date 2015/05/12/
%%humdrum-veritas 2951054636
%%humdrum-veritas-data 882353529
%%linebreak <none>
%%barnumbers 0
L: 1/4
M: 3/1
Q: 1/2=120
V: 1 clef=treble
V: 2 clef=treble-8
V: 3 clef=bass
K: C
[V:1] z12 | 
[V:2] z12 | 
[V:3] G,4E,4F,4 | 
[V:1] z12 | 
[V:2] g4e4f4 | 
[V:3] G,4C,4D,4 | 
[V:1] G4E4F4 | 
[V:2] g4c4d4 | 
[V:3] E,2E,4D,C,B,,4 | 
[V:1] G4C4D4 | 
[V:2] e2e4dcB3A | 
[V:3] z2C,4E,2D,4 | 
[V:1] E2E4DCB,3A, | 
[V:2] c2g4fed4 | 
[V:3] C,3D,E,3F,G,4 | 
[V:1] C8z4 | 
[V:2] c4z4c3d | 
[V:3] A,2F,4G,2A,2B,2 | 
[V:1] G4G4A4 | 
[V:2] e4e4f4 | 
[V:3] C6B,2A,4 | 
[V:1] B4c6B2 | 
[V:2] g4a6g2 | 
[V:3] G,4F,8 | 
[V:1] B3GA2G4c2 | 
[V:2] g3ef2g4e2 | 
[V:3] G,4z4C4 | 
[V:1] d2e4dcB4 | 
[V:2] f2edc2e2d2g2- | 
[V:3] B,2C2A,2C2G,4- | 
[V:1] e2d3cc4B2 | 
[V:2] g2f2e2dcd4 | 
[V:3] G,2A,2C2A,2G,4 | 
[V:1] c8z4 | 
[V:2] c4z4c4 | 
[V:3] C,3D,E,2F,3G,A,2- | 
[V:1] z4c4B2AG | 
[V:2] B2AGA2A2G2E2 | 
[V:3] A,G,G,4^F,2G,4 | 
[V:1] A2A2G2E2F3G | 
[V:2] F3GE2A4B2 | 
[V:3] z2D,2E,2C,2D,4 | 
[V:1] E2D4G4^F2 | 
[V:2] c2d4B2A4 | 
[V:3] C,2B,,3A,,B,,C,D,4 | 
[V:1] G3FA3GE4 | 
[V:2] G4z4g4 | 
[V:3] G,4F,2E,4C,2 | 
[V:1] z4G4F2E2- | 
[V:2] f2e4c2d2e2 | 
[V:3] D,2E,2C,4z4 | 
[V:1] E2C2D2E2C4 | 
[V:2] c4B2c4e2 | 
[V:3] E,4D,2C,2E,3F, | 
[V:1] B,2C4E2D2C2 | 
[V:2] d2c2g4f2e2- | 
[V:3] G,2E,4C,2D,2E,2- | 
[V:1] G3FF2E2D4 | 
[V:2] ece2d2c4B2 | 
[V:3] E,2C,2D,2E,2F,2G,2 | 
[V:1] C4z2C2E2F2 | 
[V:2] c8z4 | 
[V:3] A,2F,3G,E,3C,D,2 | 
[V:1] G4A2G4c2- | 
[V:2] c2e2f2g4fe | 
[V:3] C,4z2C,2E,2F,2 | 
[V:1] c2B2c4z2c2- | 
[V:2] d4c6BA | 
[V:3] G,4C,8 | 
[V:1] cBd4c2B3G | 
[V:2] G3AB2c2d2e2 | 
[V:3] z4z4G,4 | 
[V:1] A2G4d2c2e2 | 
[V:2] f2g4f2e2dc | 
[V:3] F,2E,3C,D,2E,3F, | 
[V:1] d2g3fd3ef2 | 
[V:2] B2e3df3ed2 | 
[V:3] G,2C,4B,,3C,D,2 | 
[V:1] g2e4defedc | 
[V:2] c2g4fgagfe | 
[V:3] E,3C,C,4z2F,2 | 
[V:1] B2e3dc4B2 | 
[V:2] d2c2e4d4 | 
[V:3] G,2E,3C,E,F,G,4 | 
[V:1] c12 |]  
[V:2] c12 |]  
[V:3] C,12 |]  



